epam-assets/icon-sources/18/table-row.svg

<svg width="18" height="18" viewBox="0 0 18 18" fill="none" xmlns="http://www.w3.org/2000/svg">
<g id="18/table-row">
<path id="icon" fill-rule="evenodd" clip-rule="evenodd" d="M16.5 10.5C16.5 11.3284 15.8284 12 15 12H3C2.17157 12 1.5 11.3284 1.5 10.5V7.5C1.5 6.67157 2.17157 6 3 6H15C15.8284 6 16.5 6.67157 16.5 7.5V10.5ZM3 10.5H6V7.5H3V10.5ZM7.5 10.5H10.5V7.5H7.5V10.5ZM12 10.5H15V7.5H12V10.5Z" fill="#6C6F80"/>
</g>
</svg>

<svg xmlns="http://www.w3.org/2000/svg" width="18" height="18" fill="none" viewBox="0 0 18 18">
  <path fill="#6C6F80" fill-rule="evenodd" d="M16.5 10.5A1.5 1.5 0 0 1 15 12H3a1.5 1.5 0 0 1-1.5-1.5v-3A1.5 1.5 0 0 1 3 6h12a1.5 1.5 0 0 1 1.5 1.5v3ZM3 10.5h3v-3H3v3Zm4.5 0h3v-3h-3v3Zm4.5 0h3v-3h-3v3Z" clip-rule="evenodd"/>
</svg>
